ashes/src/images/icons/taxonomies.svg

<?xml version="1.0" encoding="UTF-8" standalone="no"?>
<svg width="18px" height="18px" viewBox="0 0 18 18" version="1.1" xmlns="http://www.w3.org/2000/svg" xmlns:xlink="http://www.w3.org/1999/xlink">
    <!-- Generator: Sketch 42 (36781) - http://www.bohemiancoding.com/sketch -->
    <title>Icon_Taxonomies</title>
    <desc>Created with Sketch.</desc>
    <defs></defs>
    <g id="Page-1" stroke="none" stroke-width="1" fill="none" fill-rule="evenodd">
        <g id="Artboard-Copy" transform="translate(-197.000000, -130.000000)" fill-rule="nonzero" fill="#FFFFFF">
            <g id="Icon_Taxonomies" transform="translate(197.000000, 130.000000)">
                <path d="M6.6146529,17.1804878 L6.6146529,10.8036585 L0.128067537,1.16341463 C-0.135347097,0.859756098 -0.0219324625,0.0256097561 0.74636022,0 L17.1805066,0 C17.626848,0 18.1939212,0.526829268 17.7987992,1.16341463 L11.3122139,10.8036585 L11.3122139,14.7621951 C11.3122139,14.9963415 11.2024578,15.2158537 11.0158724,15.3585366 L7.81099437,17.7768293 C7.62806754,17.9817073 6.70977485,18.1170732 6.6146529,17.1804878 L6.6146529,17.1804878 Z M2.15123827,1.49268293 L7.98294559,10.1597561 C8.06709193,10.2841463 8.11099437,10.4268293 8.11099437,10.5768293 L8.11099437,15.6841463 L9.82318949,14.3926829 L9.82318949,10.5768293 C9.82318949,10.4268293 9.86709193,10.2841463 9.95123827,10.1597561 L15.7756285,1.49268293 L2.15123827,1.49268293 L2.15123827,1.49268293 Z" id="Shape"></path>
            </g>
        </g>
    </g>
</svg>

<svg xmlns="http://www.w3.org/2000/svg" width="18" height="18"><path fill="#FFF" d="M6.6 17.18V10.8L.14 1.16C-.14.86-.02.03.74 0H17.2c.45 0 1 .53.62 1.16l-6.5 9.64v3.96c0 .24-.1.46-.28.6l-3.2 2.42c-.2.2-1.1.34-1.2-.6zM2.16 1.48L8 10.16c.1.12.12.27.12.42v5.1l1.72-1.3v-3.8c0-.15.05-.3.13-.42L15.8 1.5H2.15z"/></svg>
